X:1
T:I Will Bow and be Simple
M:4/4
L:1/4
K:D
 A, B, D2| D D B, A,| A, B, D2| D F A2| F A B3/2 A/2-| A F F D| D D B,3/2 A,/2|\
 A,B,/2-D/2 D2|
